public/images/icons/thermometer-100-small.svg

<svg width="16" height="37" viewBox="0 0 16 37" xmlns="http://www.w3.org/2000/svg"><title>Shape</title><path d="M8 36.867c-4.418 0-8-3.582-8-8 0-2.025.76-3.87 2-5.28V6.872c0-3.312 2.686-6 6-6 3.312 0 6 2.688 6 6V23.59c1.24 1.41 1.998 3.254 1.998 5.28 0 4.417-3.58 8-7.998 8zm2-11.445V6.87c0-1.103-.896-2-2-2-1.105 0-2 .897-2 2v18.552c-1.19.693-2 1.97-2 3.445 0 2.21 1.79 4 4 4s4-1.79 4-4c0-1.476-.81-2.752-2-3.445zm-2 6.445c-1.656 0-3-1.344-3-3 0-1.305.838-2.402 2-2.816V6.87c0-.553.447-1 1-1 .553 0 1 .447 1 1V26.05c1.162.415 2 1.513 2 2.817 0 1.656-1.344 3-3 3z" fill-rule="nonzero" fill="#000"/></svg>

<?xml version="1.0" encoding="UTF-8"?>
<svg width="16px" height="37px" viewBox="0 0 16 37" version="1.1" xmlns="http://www.w3.org/2000/svg" xmlns:xlink="http://www.w3.org/1999/xlink">
    <!-- Generator: Sketch 43.2 (39069) - http://www.bohemiancoding.com/sketch -->
    <title>Shape</title>
    <desc>Created with Sketch.</desc>
    <defs></defs>
    <g id="Page-1" stroke="none" stroke-width="1" fill="none" fill-rule="evenodd">
        <g id="Thermometer-100" fill-rule="nonzero" fill="#000000">
            <path d="M8,36.867 C3.582,36.867 0,33.285 0,28.867 C0,26.842 0.76,24.998 2,23.588 L2,6.871 C2,3.558 4.686,0.871 8,0.871 C11.312,0.871 14,3.558 14,6.871 L14,23.588 C15.24,24.998 15.998,26.842 15.998,28.867 C15.998,33.285 12.418,36.867 8,36.867 Z M10,25.422 L10,21.131 L10,10.87 L10,6.871 C10,5.767 9.104,4.871 8,4.871 C6.895,4.871 6,5.767 6,6.871 L6,10.87 L6,21.131 L6,25.422 C4.811,26.115 4,27.391 4,28.867 C4,31.076 5.791,32.867 8,32.867 C10.209,32.867 12,31.076 12,28.867 C12,27.391 11.189,26.115 10,25.422 Z M8,31.867 C6.344,31.867 5,30.523 5,28.867 C5,27.562 5.838,26.465 7,26.051 L7,10.807 L7,6.87 C7,6.317 7.447,5.87 8,5.87 C8.553,5.87 9,6.317 9,6.87 L9,10.807 L9,26.051 C10.162,26.465 11,27.563 11,28.867 C11,30.523 9.656,31.867 8,31.867 Z" id="Shape"></path>
        </g>
    </g>
</svg>
